public/static/img/user/friend.svg

<svg width="24" height="24" viewBox="0 0 24 24" fill="none" xmlns="http://www.w3.org/2000/svg">
<path d="M23.1285 11.4679C23.332 11.7884 23.44 12.1602 23.44 12.5399V19.4004C23.44 20.196 23.1239 20.9591 22.5613 21.5217C21.9987 22.0843 21.2357 22.4004 20.44 22.4004H4.44C3.64435 22.4004 2.88129 22.0843 2.31868 21.5217C1.75607 20.9591 1.44 20.196 1.44 19.4004V12.5474C1.44001 12.1889 1.53638 11.837 1.71903 11.5285C1.90169 11.22 2.16391 10.9662 2.47825 10.7938C2.79258 10.6214 3.14749 10.5367 3.5058 10.5485C3.86412 10.5603 4.21268 10.6682 4.515 10.8609L12.419 15.9004L20.3675 10.8519C20.5892 10.711 20.8365 10.6152 21.0953 10.5699C21.3541 10.5246 21.6192 10.5307 21.8756 10.5879C22.132 10.6451 22.3746 10.7523 22.5896 10.9033C22.8046 11.0543 22.9877 11.2461 23.1285 11.4679ZM17.44 1.40039C18.2357 1.40039 18.9987 1.71646 19.5613 2.27907C20.1239 2.84168 20.44 3.60474 20.44 4.40039V9.40039L12.4565 14.4004L4.44 9.40039V4.40039C4.44 3.60474 4.75607 2.84168 5.31868 2.27907C5.88129 1.71646 6.64435 1.40039 7.44 1.40039H17.44Z" fill="black"/>
<path d="M13.0615 10.1423C12.8962 10.3063 12.6728 10.3983 12.44 10.3983C12.2072 10.3983 11.9838 10.3063 11.8185 10.1423L9.54053 7.87735L9.50853 7.84535C9.1384 7.46134 8.93426 6.9471 8.94025 6.41379C8.94624 5.88048 9.16187 5.37095 9.54053 4.99535C9.92615 4.61298 10.4472 4.39844 10.9903 4.39844C11.5333 4.39844 12.0544 4.61298 12.44 4.99535C12.8256 4.61298 13.3467 4.39844 13.8898 4.39844C14.4328 4.39844 14.9539 4.61298 15.3395 4.99535C15.7173 5.37014 15.9328 5.87828 15.9396 6.41038C15.9464 6.94248 15.744 7.45599 15.376 7.84035L15.3395 7.87785L13.0615 10.1428V10.1423Z" fill="#00A609"/>
<mask id="mask0_384_8721" style="mask-type:alpha" maskUnits="userSpaceOnUse" x="1" y="1" width="23" height="22">
<path fill-rule="evenodd" clip-rule="evenodd" d="M23.44 12.5399C23.44 12.1602 23.332 11.7884 23.1285 11.4679C22.9877 11.2461 22.8046 11.0543 22.5896 10.9033C22.3746 10.7523 22.132 10.6451 21.8756 10.5879C21.6192 10.5307 21.3541 10.5246 21.0953 10.5699C20.8365 10.6152 20.5892 10.711 20.3675 10.8519L12.419 15.9004L4.515 10.8609C4.21268 10.6682 3.86412 10.5603 3.5058 10.5485C3.14749 10.5367 2.79258 10.6214 2.47825 10.7938C2.16391 10.9662 1.90169 11.22 1.71903 11.5285C1.53638 11.837 1.44001 12.1889 1.44 12.5474V19.4004C1.44 20.196 1.75607 20.9591 2.31868 21.5217C2.88129 22.0843 3.64435 22.4004 4.44 22.4004H20.44C21.2357 22.4004 21.9987 22.0843 22.5613 21.5217C23.1239 20.9591 23.44 20.196 23.44 19.4004V12.5399ZM19.5613 2.27907C18.9987 1.71646 18.2357 1.40039 17.44 1.40039H7.44C6.64435 1.40039 5.88129 1.71646 5.31868 2.27907C4.75607 2.84168 4.44 3.60474 4.44 4.40039V9.40039L12.4565 14.4004L20.44 9.40039V4.40039C20.44 3.60474 20.1239 2.84168 19.5613 2.27907ZM12.44 10.3991C12.6728 10.3991 12.8962 10.3071 13.0615 10.1432V10.1437L15.3395 7.87866L15.376 7.84116C15.744 7.4568 15.9464 6.9433 15.9396 6.4112C15.9328 5.8791 15.7173 5.37096 15.3395 4.99616C14.9539 4.61379 14.4328 4.39925 13.8898 4.39925C13.3467 4.39925 12.8256 4.61379 12.44 4.99616C12.0544 4.61379 11.5333 4.39925 10.9903 4.39925C10.4472 4.39925 9.92614 4.61379 9.54051 4.99616C9.16186 5.37176 8.94623 5.88129 8.94024 6.4146C8.93425 6.94791 9.13838 7.46215 9.50851 7.84616L9.54051 7.87816L11.8185 10.1432C11.9838 10.3071 12.2072 10.3991 12.44 10.3991Z" fill="black"/>
</mask>
<g mask="url(#mask0_384_8721)">
<rect x="14.79" y="-18" width="16" height="42" transform="rotate(37.8828 14.79 -18)" fill="white" fill-opacity="0.1"/>
</g>
</svg>

<svg width="24" height="24" fill="none" xmlns="http://www.w3.org/2000/svg"><path d="M23.128 11.468a2 2 0 0 1 .312 1.072v6.86a3 3 0 0 1-3 3h-16a3 3 0 0 1-3-3v-6.853a2 2 0 0 1 3.075-1.686l7.904 5.04 7.948-5.05a2 2 0 0 1 2.761.617ZM17.44 1.4a3 3 0 0 1 3 3v5l-7.984 5-8.016-5v-5a3 3 0 0 1 3-3h10Z" fill="#000"/><path d="M13.062 10.142a.882.882 0 0 1-1.243 0L9.54 7.877l-.032-.032a2.03 2.03 0 0 1 .032-2.85 2.059 2.059 0 0 1 2.899 0 2.059 2.059 0 0 1 2.9 0 2.03 2.03 0 0 1 .036 2.845l-.037.038-2.277 2.265Z" fill="#00A609"/><mask id="a" style="mask-type:alpha" maskUnits="userSpaceOnUse" x="1" y="1" width="23" height="22"><path fill-rule="evenodd" clip-rule="evenodd" d="M23.44 12.54a2 2 0 0 0-3.073-1.688L12.42 15.9l-7.904-5.04a2 2 0 0 0-3.075 1.687V19.4a3 3 0 0 0 3 3h16a3 3 0 0 0 3-3v-6.86ZM19.561 2.28a3 3 0 0 0-2.121-.88h-10a3 3 0 0 0-3 3v5l8.017 5 7.983-5v-5a3 3 0 0 0-.879-2.12ZM12.44 10.4a.883.883 0 0 0 .622-.257l2.277-2.264.037-.038a2.03 2.03 0 0 0-.037-2.845 2.059 2.059 0 0 0-2.899 0 2.059 2.059 0 0 0-2.9 0 2.03 2.03 0 0 0-.031 2.85l.032.032 2.277 2.265a.883.883 0 0 0 .622.256Z" fill="#000"/></mask><g mask="url(#a)"><path fill="#fff" fill-opacity=".1" d="m14.79-18 12.628 9.825-25.79 33.149L-11 15.149z"/></g></svg>
